X:1
T:[ID 1-104b]
T:[ID 1-104b]
T:Bezeichnung standardisiert: Tantz Tantz
T:Urheber unbekannt Datum in der hier transkribierten schriftlichen Quelle: vermutlich vor 1767
C:Urheber unbekannt
C:Datum in der hier transkribierten schriftlichen Quelle: vermutlich vor 1767
L:1/8
M:2/4
K:D
V:1 treble 
V:1
 A | (3dcd (3ede | f2 a2 | ag/f/ ed | cB/c/ AA | (3dcd (3ede | f2 a2 | ag/f/ ec | d3 :| %9
 !fermata!f | fddB | BFFf | fddc | B3!D.C.! || %14

